!!! OTL: Berkowitz348
!!! Chapter: 1
!!! Section: III
!!! Page: 85
!!! Mode: 
!!! Encoder: DJB
**kern
*staff1
*I"Piano
=1-
*clefG2
*k[]
*C:
*M6/8
8g\L
8ee\
8dd\J
8.cc\L
16b\K
8cc\J
=2
8dd\L
8g\
8g\J
16f#/LL
16a/JJ
4g/
=3
16g#/LL
16b/JJ
4a/
16a#\LL
16cc\JJ
4b\
=4
16cc/LL
16dd/
16ee/
16cc/
16g/
16e/JJ
4c/
8e/
=5
8e/L
8cc/
8b/J
8.a/L
16g#/K
8a/J
=6
8a#/L
8b/
8e/J
8.e/L
16d#/K
8e/J
=7
!!linebreak:original
8dd/L
16e/L
16d#/J
8e/J
8cc/L
16e/L
16d#/J
8e/J
=8
16b/LL
16a/
16g#/
16b/
16e/
16g#/JJ
4.a/
=9
8g\L
8ee\
8dd\J
8.cc\L
16b\K
8cc\J
=10
8dd\L
8g\
8g\J
16f#/LL
16a/JJ
4g/
=11
16g\LL
16ff\JJ
4ff\
16g\LL
16ee\JJ
4ee\
=12
8dd\L
8a\
8b\J
4.cc\
==
*-
